img/prop-icon10.svg

<svg width="30" height="30" viewBox="0 0 30 30" fill="none" xmlns="http://www.w3.org/2000/svg">
<g clip-path="url(#clip0_163_3914)">
<path d="M29.3113 19.9999H26.3498V18.7602H27.9063C28.2867 18.7602 28.595 18.4519 28.595 18.0715C28.595 17.6912 28.2867 17.3828 27.9063 17.3828H26.3498V14.7933H27.9063C28.2867 14.7933 28.595 14.4849 28.595 14.1046C28.595 13.7242 28.2867 13.4159 27.9063 13.4159H26.3498V10.8401H27.9063C28.2867 10.8401 28.595 10.5317 28.595 10.1514C28.595 9.77103 28.2867 9.46266 27.9063 9.46266H26.3498V6.84561H27.9063C28.2867 6.84561 28.595 6.53724 28.595 6.15688C28.595 5.77652 28.2867 5.46815 27.9063 5.46815H26.3498V2.92005H27.9063C28.2867 2.92005 28.595 2.61168 28.595 2.23132C28.595 1.85097 28.2867 1.5426 27.9063 1.5426H26.3498V0.702399C26.3498 0.32204 26.0415 0.0136719 25.6611 0.0136719C25.2807 0.0136719 24.9724 0.32204 24.9724 0.702399V1.55641H22.5343V0.702399C22.5343 0.32204 22.226 0.0136719 21.8456 0.0136719C21.4653 0.0136719 21.1569 0.32204 21.1569 0.702399V1.55641H18.7051V0.702399C18.7051 0.32204 18.3968 0.0136719 18.0164 0.0136719C17.636 0.0136719 17.3277 0.32204 17.3277 0.702399V1.55641H14.9447V0.702399C14.9447 0.32204 14.6364 0.0136719 14.256 0.0136719C13.8756 0.0136719 13.5673 0.32204 13.5673 0.702399V1.55641H10.9226V0.702399C10.9226 0.32204 10.6143 0.0136719 10.2339 0.0136719H0.688727C0.308368 0.0136719 0 0.32204 0 0.702399V29.2974C0 29.6778 0.308368 29.9862 0.688727 29.9862H29.3113C29.6917 29.9862 30.0001 29.6778 30.0001 29.2974V20.6198C29.9829 20.4493 29.9028 20.2913 29.7755 20.1767C29.6481 20.0621 29.4826 19.9991 29.3113 19.9999ZM22.5344 2.92005H24.9311V5.46828H22.5344V2.92005ZM22.5344 6.84567H24.9724L24.9311 9.46273H22.5344V6.84567ZM22.5344 10.8401H24.9724L24.9311 13.4159H22.5344V10.8401ZM22.5344 14.7933H24.9724L24.9311 17.369H22.5344V14.7933ZM22.5344 18.7602H24.9724V19.9999H22.5344V18.7602ZM18.7053 2.92005H21.1157V5.46828H18.7053V2.92005ZM18.7053 6.84567H21.1157V9.46273H18.7053V6.84567ZM18.7053 10.8401H21.1157V13.4159H18.7053V10.8401ZM18.7053 14.7933H21.1157V17.369H18.7053V14.7933ZM18.7053 18.7465H21.1157V19.9862H18.7053V18.7465ZM14.9449 2.92005H17.3279V5.46828H14.9449V2.92005ZM14.9449 6.84567H17.3279V9.46273H14.9449V6.84567ZM14.9449 10.8401H17.3279V13.4159H14.9449V10.8401ZM14.9036 16.9834V14.7933H17.3279V17.369L15.0965 17.3828L14.9036 17.1899C14.9142 17.1215 14.9142 17.0518 14.9036 16.9834ZM17.3278 18.7465V19.9862H16.1432V18.7465H17.3278ZM13.6088 10.8401V13.4159H11.1432L10.9642 13.2506V10.8401H13.6088ZM13.5261 14.7933V15.8401L12.4793 14.7933H13.5261ZM10.9228 2.92005H13.5261V5.46828H10.9228V2.92005ZM10.9228 6.84567H13.5675L13.5261 9.46273H10.9228V6.84567ZM28.6226 28.6087H1.37739V1.33599H9.54545V13.4297C9.54803 13.6113 9.62229 13.7846 9.75207 13.9118L10.3719 14.5316H10.4408L14.876 18.9669V20.6198C14.876 21.0001 15.1844 21.3085 15.5648 21.3085H28.6226V28.6087Z" fill="#E0E3E4"/>
</g>
<defs>
<clipPath id="clip0_163_3914">
<rect width="30" height="30" fill="white"/>
</clipPath>
</defs>
</svg>

<svg width="30" height="30" fill="none" xmlns="http://www.w3.org/2000/svg"><g clip-path="url(#clip0_163_3914)"><path d="M29.311 20H26.35v-1.24h1.556a.689.689 0 100-1.377H26.35v-2.59h1.556a.689.689 0 000-1.377H26.35V10.84h1.556a.689.689 0 000-1.377H26.35V6.846h1.556a.689.689 0 100-1.378H26.35V2.92h1.556a.689.689 0 100-1.377H26.35v-.84a.689.689 0 10-1.378 0v.853h-2.438V.702a.689.689 0 10-1.377 0v.854h-2.452V.702a.689.689 0 10-1.377 0v.854h-2.383V.702a.689.689 0 10-1.378 0v.854h-2.644V.702a.689.689 0 00-.69-.688H.69A.689.689 0 000 .702v28.595c0 .38.308.69.689.69H29.31c.38 0 .69-.31.69-.69V20.62a.69.69 0 00-.69-.62zM22.534 2.92h2.397v2.548h-2.397V2.92zm0 3.926h2.438l-.04 2.617h-2.398V6.846zm0 3.994h2.438l-.04 2.576h-2.398V10.84zm0 3.953h2.438l-.04 2.576h-2.398v-2.576zm0 3.967h2.438V20h-2.438v-1.24zM18.705 2.92h2.41v2.548h-2.41V2.92zm0 3.926h2.41v2.617h-2.41V6.846zm0 3.994h2.41v2.576h-2.41V10.84zm0 3.953h2.41v2.576h-2.41v-2.576zm0 3.954h2.41v1.24h-2.41v-1.24zM14.945 2.92h2.383v2.548h-2.383V2.92zm0 3.926h2.383v2.617h-2.383V6.846zm0 3.994h2.383v2.576h-2.383V10.84zm-.041 6.143v-2.19h2.424v2.576l-2.231.014-.193-.193a.674.674 0 000-.207zm2.424 1.764v1.24h-1.185v-1.24h1.185zm-3.72-7.907v2.576h-2.465l-.179-.165v-2.41h2.645zm-.082 3.953v1.047l-1.047-1.047h1.047zM10.923 2.92h2.603v2.548h-2.603V2.92zm0 3.926h2.645l-.042 2.617h-2.603V6.846zm17.7 21.763H1.377V1.336h8.168V13.43a.689.689 0 00.207.482l.62.62h.069l4.435 4.435v1.653c0 .38.308.688.689.688h13.058v7.3z" fill="#E0E3E4"/></g><defs><clipPath id="clip0_163_3914"><path fill="#fff" d="M0 0h30v30H0z"/></clipPath></defs></svg>
